X:116
T: Die Schlangenkoechin
N: Q2079G
O: Osteuropa, Tschechoslowakei, Maehren, Sued - Walachei, Tichov
N: Maehrische Fassung der Ballade. Verzierungen (Nachschlaege) und
N: Quintole. Quintole in Triole plus Viertelnote geaendert.
N: Zweite und vierte Zeile = Refrain.
R: Ballade, Mord; Reigen - Tanz, antiphonal
M: 2/4
L: 1/8
K: D
 | DEFG | A2G2 |
AB=cB | A2z2 |
d2=c2 | BAGF | GGD2 |
GBAG | (3FGFE2 | D2z2

@@@ Tune index: 1171
